X:1
T:James Gibb editions
T:O bone Jesu - Monteverdi
T:#
%%score [ 1 2 3 ]
L:1/8
Q:1/4=100
M:4/4
K:Ab
V:1 treble nm="Soprano" snm="S"
V:2 treble nm="Alto" snm="A"
V:3 treble-8 nm="Tenor" snm="T"
V:1
"^O bone Jesu""^Claudio Monteverdi\n(1567-1643)" c4 B4 | A4 d4 | c2 A2 B2 c2 | d2 f4 e2 | %4
w: O bo-|ne Je-|su! Il- lu- mi-|na o- cu-|
 d2 (cd e2 dc | d4) c2 (c2 |[M:4/4] c2 B4 A2 | d4 c4- | c4 z2 f2- | f2 e4 d2 | c2 B2 d2 d2 | %11
w: los me * * * *|* os, o-|* cu- los|me- os,|* il\-|* lu- mi-|na o- cu- los|
 c4 B4 | z8 | B4 d4 | c3 c e3 e | d2 B2 d4 | c2 d2 c2 A2 | c4 B2 A2- | A2 G2 B2 A2 | G4 F2 F2 | %20
w: me- os,||ne un-|quam ob- dor- mi-|am in mor-|te, ne- quan- do|di- cat i\-|* ni- mi- cus|me- us pre-|
 c3 c d2 B2 | A4 B2 B2- | B2 A2 z2 B2- | B2 A2 B2 d2- | d2 cB c4) | %25
w: va- lu- i ad-|ver- sus e\-|* um, ad\-|* ver- sus e\-||
[Q:1/4=50] !fermata!B2[Q:1/4=100] d4 A2 | c2 B2 A2 A2 | e4 c2 B2- | B2 c2 d2 e2 | A2 e4 d2- | %30
w: um. O A-|do- na- i! In|ma- nus tu\-|* as, Do- mi-|ne, com- men\-|
 d2 c4 B2- | B2 A4 G2- | G2 (F4 =E2) | F4 z4 | z8 | z8 | z2 c4 c2 | e4 =d2 e2 | f2 _d2 c4 | z8 | %40
w: * do spi\-|* ri- tum|* me\- *|um;|||re- de-|mi- sti- me,|Do- mi- ne,||
 z2 c4 d2 | e2 c2 f4 | e4 A2 B2 | c2 A2 d4 | c4 z2[Q:1/4=99] F2- | %45
w: De- us|ve- ri- ta-|tis, De- us|ve- ri- ta-|tis, De\-|
[Q:1/4=97] F2[Q:1/4=95] G2[Q:1/4=94] A3[Q:1/4=92] F |[Q:1/4=89] B8 |[Q:1/4=86] =A8 |] %48
w: * us ve- ri-|ta-|tis.|
V:2
 z8 | z8 | F4 E4 | D4 _G4 | F2 F2 G2 =A2 | B2 F3 G A2 |[M:4/4] F4 E2 E2 | F2 G2 A2 A2- | A2 G2 F4 | %9
w: ||O bo-|ne Je-|su! Il- lu- mi-|na o- cu- los|me- os, il-|lu- mi- na o\-|* cu- los|
 (G6 FG | AFGA BF B2- | B2 =A2) B4 | z2 F2 A4 | G2 G2 B3 B | A6 E2 | _G4 F2 B2 | A2 F2 A4- | %17
w: me\- * *||* * os,|ne un-|quam ob- dor- mi-|am in|mor- te, ne-|quan- do di\-|
 A2 G2 z2 F2- | F2 E2 D2 C(F- | F=E/=D/ E2) F4 | z2 z2 z2 B,2 | F3 F _G2 E2 | D4 E2 (_G2- | %23
w: * cat i\-|* ni- mi- cus- me\-|* * * * us|pre-|va- lu- i ad-|ver- sus e\-|
 G2 FE F3 _G | AF B4 =A2) | !fermata!B2 F4 F2 | E2 D2 C4- | C4 A2 G2- | G2 E2 F2 E2 | F2 G2 A2 F2 | %30
w: ||um. O A-|do- na- i!|* In ma\-|* nus tu- as,|Do- mi- ne, com-|
 F4 E4 | D2 C2 B,2 (B2- | BA AG/F/ G4) | F4 z2 C2- | C2 C2 E4 | =D2 E2 F2 _D2 | C4 z2 E2- | %37
w: men- do|spi- ri- tum me\-||um; re\-|* de- mi-|sti me, Do- mi-|ne, re\-|
 E2 E2 G4 | F3 G A2 F2 | (G3 F/G/ A2) F2 | G2 A4 F2 | B2 A2 C2 D2 | E2 C2 (F2 ED | EDCB, A,2 B,2) | %44
w: * de- mi-|sti me, Do- mi-|ne, * * * De-|us ve- ri-|ta- tis, De- us|ve- ri- ta\- * *||
 C4 C4 | D4 E2 F2 | (E2 F4 E2) | F8 |] %48
w: tis, De-|us ve- ri-|ta\- * *|tis.|
V:3
 z8 | z8 | z8 | z8 | z4 c4 | B4 A4 |[M:4/4][K:treble-8] d4 c4 | z2 z2 z2 f2- | f2 e4 d2 | c4 B4 | %10
w: ||||O|bo- ne|Je- su!|Il\-|* lu- mi-|na o-|
 A2 e2 B4 | f4 z2 B2 | d4 c2 c2 | e2 e2 d2 B2 | f4 c4 | z2 e2 d2 B2 | f2 B2 z2 d2 | c2 e4 d2 | %18
w: cu- los me-|os, ne|un- quam ob-|dor- mi- am in|mor- te,|ne- quan- do|di- cat i-|ni- mi- cus|
 c4 B2 F2 | c3 c d2 B2 | =A4 B2 (d2- | de f2) e4 | z2 f2 c2 e2 | (d6 cB | f8 | !fermata!B2 B4 d2 | %26
w: me- us pre-|va- lu- i ad-|ver- sus e\-|* * * um,|ad- ver- sus|e\- * *||um. O A-|
 A2 B2 F4 | z2 A4 e2- | e2 c2 B2 c2 | d2 e2 A2 B2- | B2 A4 G2 | F2 A2 E4 | F4 c4 | z2 F4 F2 | %34
w: do- na- i!|In ma\-|* nus tu- as,|Do- mi- ne, com\-|* men- do|spri- ri- tum|me- um;|re- de-|
 A4 G2 =A2 | B2 _G2 F4 | A6 A2 | c4 B2 c2 | d2 B2 A4 | z2 c4 d2 | e2 c2 f4 | e2 A4 B2 | c2 A2 d4 | %43
w: mi- sti me,|Do- mi- ne,|re- de-|mi- sti me,|Do- mi- ne,|De- us|ve- ri- ta-|tis, De- us|ve- ri- ta-|
 c2 F4 G2 | A6 F2 | B4 A4 | _G8) | F8 |] %48
w: tis, De- us|ve- ri-|ta\- *||tis.|

